src/images/icons/social/github.svg

<svg width="24" height="24" viewBox="0 0 24 24" xmlns="http://www.w3.org/2000/svg">
<path fill-rule="evenodd" clip-rule="evenodd" d="M21 5.95801C21.009 6.56501 20.933 7.32601 20.866 7.88101C20.8448 8.06436 20.8114 8.24609 20.766 8.42501C21.622 10.01 22 11.917 22 14C22 16.468 20.813 18.501 18.964 19.887C17.132 21.26 14.66 22 12 22C9.34 22 6.868 21.26 5.036 19.887C3.187 18.501 2 16.468 2 14C2 11.917 2.377 10.01 3.235 8.42501C3.18965 8.24609 3.15625 8.06436 3.135 7.88101C3.066 7.32601 2.99 6.56501 3 5.95801C3.01 5.27501 3.1 4.59201 3.199 3.91401C3.245 3.60001 3.317 3.30501 3.658 3.11901C4.006 2.92901 4.372 2.99901 4.733 3.10201C5.951 3.44701 7.093 3.93201 8.167 4.51201C9.3 4.17301 10.578 4.00001 12 4.00001C13.422 4.00001 14.7 4.17301 15.832 4.51301C16.9211 3.91761 18.0728 3.44473 19.266 3.10301C19.627 3.00001 19.994 2.92901 20.341 3.11901C20.681 3.30501 20.754 3.60001 20.801 3.91401C20.899 4.59201 20.99 5.27501 21 5.95801ZM20 14C20 12.313 19.612 10 17.5 10C16.548 10 15.647 10.25 14.747 10.5C13.848 10.75 12.95 11 12 11C11.05 11 10.152 10.75 9.253 10.5C8.353 10.25 7.453 10 6.5 10C4.394 10 4 12.32 4 14C4 15.764 4.827 17.231 6.236 18.287C7.66 19.356 9.69 20 12 20C14.31 20 16.339 19.355 17.764 18.287C19.173 17.23 20 15.764 20 14ZM10 14.5C10 15.88 9.328 17 8.5 17C7.672 17 7 15.88 7 14.5C7 13.12 7.672 12 8.5 12C9.328 12 10 13.12 10 14.5ZM15.5 17C16.328 17 17 15.88 17 14.5C17 13.12 16.328 12 15.5 12C14.672 12 14 13.12 14 14.5C14 15.88 14.672 17 15.5 17Z"/>
</svg>

<svg xmlns="http://www.w3.org/2000/svg" viewBox="0 0 24 24">
  <path fill-rule="evenodd" clip-rule="evenodd" d="M21 6a15.6 15.6 0 01-.2 2.4C21.6 10 22 12 22 14c0 2.5-1.2 4.5-3 5.9a11.6 11.6 0 01-7 2.1c-2.7 0-5.1-.7-7-2.1A7.2 7.2 0 012 14c0-2 .4-4 1.2-5.6V8a15 15 0 010-4c0-.3.1-.6.5-.8.3-.2.7-.1 1 0 1.3.3 2.4.8 3.5 1.4C9.3 4.2 10.6 4 12 4s2.7.2 3.8.5c1.1-.6 2.3-1 3.5-1.4.3-.1.7-.2 1 0 .4.2.5.5.5.8l.2 2zm-1 8c0-1.7-.4-4-2.5-4-1 0-1.9.3-2.8.5-.9.3-1.8.5-2.7.5-1 0-1.8-.3-2.7-.5-1-.3-1.8-.5-2.8-.5C4.4 10 4 12.3 4 14c0 1.8.8 3.2 2.2 4.3 1.5 1 3.5 1.7 5.8 1.7s4.3-.6 5.8-1.7c1.4-1 2.2-2.5 2.2-4.3zm-10 .5c0 1.4-.7 2.5-1.5 2.5S7 15.9 7 14.5 7.7 12 8.5 12s1.5 1.1 1.5 2.5zm5.5 2.5c.8 0 1.5-1.1 1.5-2.5s-.7-2.5-1.5-2.5-1.5 1.1-1.5 2.5.7 2.5 1.5 2.5z"/>
</svg>
